img/process/icon6.svg

<svg width="24" height="25" viewBox="0 0 24 25" fill="none" xmlns="http://www.w3.org/2000/svg">
<g clip-path="url(#clip0_30_17341)">
<path d="M18.6865 13.4651C18.8216 14.747 18.6475 16.0734 18.114 17.3263V17.3268L19.9657 19.7183C20.1315 19.9324 20.4422 19.9618 20.6474 19.7852C22.3102 18.3543 23.4104 16.2888 23.5734 13.9646C23.5924 13.694 23.3747 13.4652 23.1035 13.4652H18.6865V13.4651Z" fill="url(#paint0_linear_30_17341)"/>
<path d="M14.0369 1.31182V7.15964C15.6056 7.83856 16.9079 9.02079 17.7394 10.501H23.1153C23.3811 10.501 23.5962 10.281 23.586 10.0154C23.3946 5.0442 19.4311 1.09011 14.5276 0.841425C14.2601 0.827866 14.0369 1.04397 14.0369 1.31182Z" fill="url(#paint1_linear_30_17341)"/>
<path d="M11.0413 22.0646C6.76121 22.1088 3.22417 18.6386 3.18957 14.3585C3.15468 10.0448 6.65395 6.52412 10.9597 6.52412V4.23071C10.9597 3.96234 10.7357 3.74764 10.4676 3.75993C4.87195 4.017 0.413377 8.63504 0.41333 14.2946C0.41333 20.1304 5.19328 24.8783 11.029 24.8407C13.2297 24.8266 15.2698 24.1387 16.9539 22.973C17.1755 22.8197 17.2221 22.511 17.0571 22.2979L15.6528 20.484C14.3679 21.4602 12.7717 22.0467 11.0413 22.0646Z" fill="url(#paint2_linear_30_17341)"/>
<path d="M4.60156 14.2943C4.60156 17.8 7.45379 20.6523 10.9595 20.6523C14.4649 20.6523 17.3175 17.8006 17.3175 14.2943C17.3175 10.7887 14.4649 7.93637 10.9595 7.93637C7.45379 7.93637 4.60156 10.7886 4.60156 14.2943ZM11.6657 10.0706V10.7443C12.3898 10.7443 13.0307 11.0523 13.4826 11.5344C13.7491 11.8188 13.7345 12.266 13.4502 12.5325C13.1675 12.7973 12.7224 12.7872 12.452 12.5C12.2496 12.2844 11.9737 12.1592 11.6945 12.1568C11.123 12.1568 10.7367 12.1568 10.1676 12.1568C9.77178 12.1568 9.45195 12.4775 9.45195 12.8724C9.45195 13.267 9.77305 13.5881 10.1681 13.5881H11.7514C12.9247 13.5881 13.8795 14.5429 13.8795 15.7162C13.8795 16.8126 13.0363 17.8448 11.6657 17.8448V18.518C11.6657 18.9079 11.3498 19.2243 10.9595 19.2243C10.5697 19.2243 10.2533 18.9079 10.2533 18.518V17.8448C9.75582 17.8448 9.26569 17.7909 8.69158 17.3928C8.37142 17.1706 8.29185 16.7303 8.51408 16.4102C8.7363 16.0896 9.17652 16.01 9.49668 16.2322C9.66617 16.3509 9.87668 16.4296 10.0861 16.4323H11.7514C12.1447 16.4323 12.4671 16.1148 12.4671 15.7162C12.4671 15.3217 12.146 15.0006 11.7514 15.0006C11.0508 15.0006 10.9064 15.0006 10.1681 15.0006C8.99431 15.0006 8.03949 14.0457 8.03949 12.8724C8.03949 11.7727 8.88579 10.7443 10.2533 10.7443V10.0706C10.2533 9.68076 10.5697 9.36437 10.9595 9.36437C11.3498 9.36437 11.6657 9.68076 11.6657 10.0706Z" fill="url(#paint3_linear_30_17341)"/>
</g>
<defs>
<linearGradient id="paint0_linear_30_17341" x1="18.114" y1="16.6828" x2="23.5746" y2="16.6828" gradientUnits="userSpaceOnUse">
<stop stop-color="#6A11CB"/>
<stop offset="1" stop-color="#2575FC"/>
</linearGradient>
<linearGradient id="paint1_linear_30_17341" x1="14.0369" y1="5.67093" x2="23.5863" y2="5.67093" gradientUnits="userSpaceOnUse">
<stop stop-color="#6A11CB"/>
<stop offset="1" stop-color="#2575FC"/>
</linearGradient>
<linearGradient id="paint2_linear_30_17341" x1="0.41333" y1="14.3002" x2="17.1559" y2="14.3002" gradientUnits="userSpaceOnUse">
<stop stop-color="#6A11CB"/>
<stop offset="1" stop-color="#2575FC"/>
</linearGradient>
<linearGradient id="paint3_linear_30_17341" x1="4.60156" y1="14.2943" x2="17.3175" y2="14.2943" gradientUnits="userSpaceOnUse">
<stop stop-color="#6A11CB"/>
<stop offset="1" stop-color="#2575FC"/>
</linearGradient>
<clipPath id="clip0_30_17341">
<rect width="24" height="24" fill="white" transform="translate(0 0.84082)"/>
</clipPath>
</defs>
</svg>

<svg width="24" height="25" viewBox="0 0 24 25" fill="none" xmlns="http://www.w3.org/2000/svg"><g clip-path="url(#clip0_30_17341)"><path d="M18.686 13.465a7.754 7.754 0 01-.572 3.861l1.852 2.392a.472.472 0 00.681.067 8.45 8.45 0 002.926-5.82.47.47 0 00-.47-.5h-4.417z" fill="url(#paint0_linear_30_17341)"/><path d="M14.037 1.312V7.16a7.82 7.82 0 013.702 3.341h5.376a.47.47 0 00.471-.486c-.191-4.97-4.155-8.925-9.058-9.174a.47.47 0 00-.491.47z" fill="url(#paint1_linear_30_17341)"/><path d="M11.041 22.065c-4.28.044-7.817-3.426-7.851-7.707-.035-4.313 3.464-7.834 7.77-7.834V4.231a.471.471 0 00-.492-.471C4.872 4.017.413 8.635.413 14.295c0 5.835 4.78 10.583 10.616 10.546 2.2-.014 4.24-.702 5.925-1.868a.47.47 0 00.103-.675l-1.404-1.814a7.732 7.732 0 01-4.612 1.58z" fill="url(#paint2_linear_30_17341)"/><path d="M4.602 14.294a6.365 6.365 0 006.357 6.358 6.365 6.365 0 006.358-6.358 6.366 6.366 0 00-6.357-6.358 6.365 6.365 0 00-6.358 6.358zm7.064-4.223v.673a2.48 2.48 0 011.817.79.707.707 0 01-1.031.966 1.063 1.063 0 00-.758-.343h-1.526a.715.715 0 100 1.431h1.583a2.13 2.13 0 012.129 2.128c0 1.097-.844 2.129-2.214 2.129v.673a.706.706 0 11-1.413 0v-.673c-.497 0-.987-.054-1.561-.452a.706.706 0 01.805-1.16c.17.118.38.197.59.2h1.664a.715.715 0 100-1.432h-1.583a2.13 2.13 0 01-2.129-2.129c0-1.1.847-2.128 2.214-2.128v-.673a.706.706 0 011.413 0z" fill="url(#paint3_linear_30_17341)"/></g><defs><linearGradient id="paint0_linear_30_17341" x1="18.114" y1="16.683" x2="23.575" y2="16.683" gradientUnits="userSpaceOnUse"><stop stop-color="#6A11CB"/><stop offset="1" stop-color="#2575FC"/></linearGradient><linearGradient id="paint1_linear_30_17341" x1="14.037" y1="5.671" x2="23.586" y2="5.671" gradientUnits="userSpaceOnUse"><stop stop-color="#6A11CB"/><stop offset="1" stop-color="#2575FC"/></linearGradient><linearGradient id="paint2_linear_30_17341" x1=".413" y1="14.3" x2="17.156" y2="14.3" gradientUnits="userSpaceOnUse"><stop stop-color="#6A11CB"/><stop offset="1" stop-color="#2575FC"/></linearGradient><linearGradient id="paint3_linear_30_17341" x1="4.602" y1="14.294" x2="17.317" y2="14.294" gradientUnits="userSpaceOnUse"><stop stop-color="#6A11CB"/><stop offset="1" stop-color="#2575FC"/></linearGradient><clipPath id="clip0_30_17341"><path fill="#fff" transform="translate(0 .84)" d="M0 0h24v24H0z"/></clipPath></defs></svg>
